packages/icons/svg/Fill/color-palette.svg

<svg fill="none" height="24" viewBox="0 0 24 24" width="24" xmlns="http://www.w3.org/2000/svg"><path clip-rule="evenodd" d="m16.75 7.79879c-.718.414-1.635.168-2.049-.549-.414-.718-.168-1.635.549-2.049.718-.414 1.635-.168 2.049.549.414.718.168 1.635-.549 2.049zm-5.75-.79894c-.828 0-1.50004-.672-1.50004-1.5s.67204-1.5 1.50004-1.5 1.5.672 1.5 1.5-.672 1.5-1.5 1.5zm-2.70103 2.25c-.414.717-1.331.96305-2.049.549-.717-.414-.963-1.331-.549-2.049.414-.717 1.331-.963 2.049-.549.717.414.963 1.331.549 2.049zm-1.45998 5.49285c-.687.464-1.619.283-2.082-.404-.464-.686-.282-1.619.404-2.082.687-.464 1.619-.282 2.082.404.464.687.282 1.619-.404 2.082zm12.70101-9.65791c-1.923-1.984-4.726-3.092-7.634-3.085h-.001c-4.94401.042-9.16401 3.752-9.81301 8.63101-.382 2.86.47 5.741 2.338 7.903 1.868 2.164 4.577 3.427 7.43101 3.466h.037c1.201 0 2.259-.787 2.528-1.886.199-.822-.008-1.656-.568-2.288-.081-.09-.128-.21-.128-.325 0-.275.225-.5.5-.5h1.651c3.192 0 5.991-2.598 6.112-5.672.092-2.30001-.779-4.51701-2.453-6.24401z" fill="#6b7280" fill-rule="evenodd"/></svg>

<svg width="24" height="24" viewBox="0 0 24 24" fill="none" xmlns="http://www.w3.org/2000/svg">
<g id="Icon/Fill/color-palette">
<path id="Mask" fill-rule="evenodd" clip-rule="evenodd" d="M16.75 7.7988C16.032 8.2128 15.115 7.9668 14.701 7.2498C14.287 6.5318 14.533 5.6148 15.25 5.2008C15.968 4.7868 16.885 5.0328 17.299 5.7498C17.713 6.4678 17.467 7.3848 16.75 7.7988ZM11 6.9998C10.172 6.9998 9.49996 6.3278 9.49996 5.4998C9.49996 4.6718 10.172 3.9998 11 3.9998C11.828 3.9998 12.5 4.6718 12.5 5.4998C12.5 6.3278 11.828 6.9998 11 6.9998ZM8.29896 9.2498C7.88496 9.9668 6.96796 10.2128 6.24996 9.7988C5.53296 9.3848 5.28696 8.4678 5.70096 7.7498C6.11496 7.0328 7.03196 6.7868 7.74996 7.2008C8.46696 7.6148 8.71296 8.5318 8.29896 9.2498ZM6.83896 14.7428C6.15196 15.2068 5.21996 15.0258 4.75696 14.3388C4.29296 13.6528 4.47496 12.7198 5.16096 12.2568C5.84796 11.7928 6.77996 11.9748 7.24296 12.6608C7.70696 13.3478 7.52496 14.2798 6.83896 14.7428ZM19.54 5.0848C17.617 3.1008 14.814 1.9928 11.906 1.9998H11.905C6.96096 2.0418 2.74096 5.7518 2.09196 10.6308C1.70996 13.4908 2.56196 16.3718 4.42996 18.5338C6.29796 20.6978 9.00696 21.9608 11.861 21.9998H11.898C13.099 21.9998 14.157 21.2128 14.426 20.1138C14.625 19.2918 14.418 18.4578 13.858 17.8258C13.777 17.7358 13.73 17.6158 13.73 17.5008C13.73 17.2258 13.955 17.0008 14.23 17.0008H15.881C19.073 17.0008 21.872 14.4028 21.993 11.3288C22.085 9.0288 21.214 6.8118 19.54 5.0848Z" fill="#000000"/>
</g>
</svg>
